X:1
T:SIX IRISH FOLKSONGS
T:
T:No.5.   IT IS NOT THE TEAR
T:(Air - "The sixpence")
T:Op. 78.
T:Charles Villiers Stanford (1852-1924)
T:Thomas Moore (1779-1852)
T:SIX IRISH FOLKSONGS No.5.   IT IS NOT THE TEAR (Air - "The sixpence") Op. 78.
T:Copyright © CPDL
T:Copyright © CPDL
T:Copyright © CPDL
T:Copyright © CPDL
T:Copyright © CPDL
C:Charles Villiers Stanford (1852-1924)
Z:Thomas Moore (1779-1852)
Z:Copyright © CPDL
%%score [ 1 2 3 4 ]
L:1/8
Q:1/4=80
M:4/4
K:Eb
V:1 treble nm="Soprano" snm="S."
V:2 treble nm="Alto" snm="A."
V:3 treble-8 transpose=-12 nm="Tenor" snm="T."
V:4 bass nm="Bass" snm="B."
V:1
!p!"^Andante." (AB) | (c_d)cB G2 FG | B2 B2 C2 EF | G2 BG (FA)GF | E4 E2 GB | %5
w: It _|is _ not the tear, at this|mo- ment shed, When the|cold turf has just * been laid|o'er him, That can|
 (c_d)!<(!cB G2 F!<)!G | B2 B2 C2 EF | G2!>(! BG!>)! (FA)GF | E4 E2!p! EE | e6 =Bc | %10
w: tell _ how be- lov'd was the|friend that's fled, Or how|deep in our hearts * we de-|plore him, Tis the|tear, thro' a|
 c2 G2 G2 (_BA) |!<(! (GB)!<)! (cd) e3 d |!>(! c4!>)! B2!p! GB | (c_dc)B (G2 F)G | %14
w: long day wept, 'Tis _|life's _ whole * path o'er|shad- ed; 'Tis the|one _ _ re- mem- * brance,|
 B2 B2 !fermata!C2!pp! EF | (G2 B)G (FA) (GF) | E8- | E2 !fermata!E4 ||!pp!!pp! BB | B3 B B4 | %20
w: fond- ly kept, When all|high- * er griefs * have *|fa-|* ded.|Thus his|mem- or- y,|
 e6 (de) | B3 A (AG)GA | B2 eB!<(! B2 B!<)!c | (cB) E4!f! G2 | (c_d)cB G2 FG | B2 B2 C2 EF | %26
w: like some *|ho- ly light, * Kept a-|live in our hearts, will im-|prove, * them, For|worth * shall look fair- er, and|truth more bright, When we|
 G2 BG!>(! (FA)G!>)!F | E4 E2!<(! E!<)!F | G3 B e2 de | (fe) (de) c2!p! (BA) | (GB) (cd) e3 d | %31
w: think how he lived * but to|love them. And no|fresh- er flow- ers the|sod _ per- * fume Where *|bu- * ried * saints are|
 c4 B2 GB |!<(! (c_d!<)!!>(!c)B!>)! G2 FG | B2 B2 !fermata!C2"^Più lento"!pp! EF | G2 BG (FA)GF | %35
w: ly- ing, So our|hearts _ _ shall bor- row a|sweet'- ning bloom From the|im- age he left * there in|
"^rall." E8 | !fermata!E8 || %37
w: dy-|ing.|
V:2
!p! E2 | E2 EE =D2 DE | D2 (EB,) (B,A,)CE | E2 EE C2 CC | C4 B,2 EE | E2!<(! AF E2 D!<)!E | %6
w: It|is not the tear, at this|mo- ment * shed, * When the|cold turf has just been laid|o'er him, That can|tell how be- lov'd was the|
 F2 (E_D) C2 DE | (E=D)!>(!ED!>)! C2 DD | (B,2 C2) B,2!p! EE | E6 AG | (DE) =B,2 C2 (GF) | %11
w: friend that's _ fled, Or how|deep * in our hearts we de-|plore _ him, 'Tis the|tear, thro' a|long * day wept, 'Tis _|
!<(! E2!<)! G2 G3 G |!>(! (G2 F2)!>)! G2!p! GB | (c_dc)B (G2 F)G | B2 B2 !fermata!c2!pp! EE | %15
w: life's whole path o'er|shad- * ed; 'Tis the|one _ _ re- mem- * brance,|fond- ly kept, When all|
 E3 E F2 z2 | z2 E2 (_D2 C2- | C2) !fermata!B,4 || GG | G3 G G4 | G2 (AB) (cBA)G | %21
w: high- er griefs|have fa- *|* ded.|Thus his|mem- or- y,|like some * ho- * * ly,|
 (F2 G)F (FE)E!<(!F | G2!<)! BG (FG)GF | E2 E4!f! G2 | (F=E)FF _E2 DE | F2 G2 G2 GF | %26
w: ho- * ly light, * Kept a-|live in our hearts, * will im-|prove them, For|worth * shall look fair- er, and|truth more bright, When we|
 (FE)DE!>(! E2 D!>)!C | (CB,DC) B,2!<(! C!<)!E | E3 F B2 BB | (AG) (FG) E2!p! F2 | G2 F2 E2 F2 | %31
w: think * how he lived but to|love _ _ _ them. And no|fresh- er flow- ers the|sod _ per- * fume Where|bu- ried saints are|
 (BG _A2- A)FGF |!<(! (G2!<)!!>(! A)F!>)! E2 B,B, | D2 (_DB,) (B,!fermata!A,)!pp!CE | %34
w: ly- * * * ing, So our|hearts _ shall bor- row a|sweet'- ning * * bloom From the|
 (E=D)DE E2 DD |"^rall." (C2 _D4 C2) | !fermata!B,8 || %37
w: im- * age he left there in|dy- * *|ing.|
V:3
!p! (EG) | (AB)AG B2 BB | A2 G2 E2 AA | G2 GG A2 BA | (G2 A2) G2 BB | (AB)!<(!c=d e2 f!<)!e | %6
w: It _|is _ not the tear, at this|mo- ment shed, When the|cold turf has just been laid|o'er _ him, That can|tell _ how be- lov'd was the|
 (BA) G2 G2 Fc | B2!>(!!>(! BB!>)!!>)! (AF)BA | (G2 A2) G2!p! GA |!<(! B3 B!<)! e2 de | %10
w: friend * that's fled, Or how|deep in our hearts * we de-|plore _ him, 'Tis the|tear, thro' ma- ny a|
 (fe) (de) c2 _B2 | (BG) (gf) (e c2) B |!>(! c4!>)! d2!p! GB | (c_dc)B (G2 F)G | %14
w: long * day * wept, 'Tis|life's _ whole * path _ o'er|shad- ed; 'Tis the|one _ _ re- mem- * brance,|
 B2 B2 !fermata!c2!pp! cc | c2 B2 c2 z2 | z2 c2 (B2 (A2 | A2)) !fermata!G4 ||!pp! ee | e3 e e4 | %20
w: fond- ly kept, When all|high- er griefs|have fa- *|* ded.|Thus his|mem- or- y,|
 e6 B2 | (edc)d (de)ee | e2 GB!<(! d2 d!<)!d | (e _d2 c) B2!f! (ed) | (cB)c=d e2 fe | d2 d2 c2 cc | %26
w: like some|ho- * * ly light, * Kept a-|live in our hearts, will im-|prove _ _ them, For *|worth * shall look fair- er, and|truth more bright, When we|
 B2 FG!>(! A2 B!>)!A | (AGBA) G2!<(! c!<)!c | e3 d e2 fe | c2 (c=B) c2!p! (dc) | %30
w: think how he lived but to|love _ _ _ them. And no|fresh- er flow- ers the|sod per- * fume Where *|
 B2 (=AB) (G A2) B | (c3 f) B2 BB |!<(! e3!<)!!>(! d!>)! B2 AG | E2 G2 !fermata!E2!pp! Ec | %34
w: bu- ried * saints * are|ly- * ing, So our|hearts shall bor- row a|sweet'- ning bloom From the|
 B2 BB c2 BA |"^rall." (G3 F E2 F2) | !fermata!G8 || %37
w: im- age he left there in|dy- * * *|ing.|
V:4
!p! E,2 | E,2 E,E, G,2 A,G, | F,2 E,2 A,,2 A,,C, | B,,2 B,,C, F,2 F,F, | (C,2 A,,2) E,2 E,G, | %5
w: It|is not the tear, at this|mo- ment shed, When the|cold turf has just been laid|o'er _ him, That can|
 (A,G,)!<(!A,B, C2 C!<)!C, | D,2 E,2 A,,2 A,,A,, | G,,2 F,,G,, A,,2 B,,B,, | E,4 E,2!p! E,F, | %9
w: tell _ how be- lov'd was the|friend that's fled, Or how|deep in our hearts we de-|plore him, 'Tis the|
!<(! G,3 G,!<)! G,2 F,G, | (A,G,) (F,A,) E,2 D,2 | F,2 (E,D,) (C,E,) G,2 | %12
w: tear, thro' ma- ny a|long * day * wept, 'Tis|life's whole * path _ o'er|
!>(! A,4!>)! G,2!p! G,B, | (C_DC)B, G,2 F,G, | B,2 B,2 !fermata!C,2!pp! CA, | G,3 G, A,2 z2 | %16
w: shad- ed; 'Tis the|one _ _ re- mem- * brance,|fond- ly kept, When all|high- er griefs|
 z4 (A,,2 C,2) | E,2 !fermata!E,4 || z2 | z4 z2!mp! G,B, | (C_D)CB, G,2 (F,G,) | B,2 B,2 C,2 C,C, | %22
w: have _|fa- ded.||Thus his|mem- * or- y, like some *|ho- ly light, Kept a-|
 B,,2 E,F, (A,C)B,A, | (G,2 A,2) G,2!f! E,2 | (A,G,)A,B, C2 DC | C2 G,2 A,2 A,A,, | %26
w: live in our hearts, * will im-|prove _ them, For|worth * shall look fair- er, and|truth more bright, When we|
 B,,3 B,,!>(! C,2 D,!>)!D, | E,4 E,2!<(! C!<)!C | B,3 A, G,2 A,G, | (F,G,) (A,G,) C2!p! D,2 | %30
w: think he lived but to|love them. And no|fiesh- er flow- ers the|sod _ per- * fume Where|
 E,3 D, C,2 D,2 | (E,2 F,2) D,2 E,D, |!<(! (C,B,,!<)!!>(!C,)D,!>)! E,2 D,E, | %33
w: bu- ried saints are|ly- * ing, So our|hearts _ _ shall bor- row a|
 B,,2 E,2 !fermata!A,,2!pp! A,,A,, | G,,2 G,,G,, A,,2 B,,B,, |"^rall." (C,2 B,,4 A,,2) | %36
w: sweet'- ning bloom From the|im- age he left there in|dy- * *|
 !fermata![E,,B,,E,]8 || %37
w: ing.|

